img/work/bullet.svg

<svg height="13" viewBox="0 0 14 13" width="14" xmlns="http://www.w3.org/2000/svg"><path d="m37.1054688 188.157492c.0455731-.036458.0934242-.06608.1435546-.088867.0501305-.022787.1025388-.03418.1572266-.03418.1184902 0 .2210282.043294.3076172.129883s.1298828.189127.1298828.307617c0 .054688-.0113931.109375-.0341797.164063s-.0524087.10026-.0888672.136719l-3.3496093 3.349609c-.0364586.045573-.082031.079752-.1367188.102539s-.1093747.03418-.1640625.03418c-.0638024 0-.1230466-.011393-.1777344-.03418-.0546877-.022787-.1002602-.056966-.1367187-.102539l-1.4765625-1.476563c-.0364585-.036458-.0660806-.079752-.0888672-.129882-.0227866-.050131-.0341797-.102539-.0341797-.157227 0-.127605.0432938-.232421.1298828-.314453s.189127-.123047.3076172-.123047c.0638024 0 .120768.009115.1708984.027344.0501305.018229.0934243.045573.1298828.082031l1.1757813 1.162109zm-2.1054688-4.142578c.8476605 0 1.6406213.159504 2.3789062.478516.7473996.319012 1.3990858.756507 1.9550782 1.3125.5559923.555992.993488 1.207678 1.3125 1.955078.319012.738285.4785156 1.531246.4785156 2.378906 0 .847661-.1595036 1.640621-.4785156 2.378906-.319012.7474-.7565077 1.399086-1.3125 1.955078-.5559924.555993-1.2076786.993488-1.9550782 1.3125-.7382849.319012-1.5312457.478516-2.3789062.478516s-1.6406213-.159504-2.3789062-.478516c-.7473996-.319012-1.3990858-.756507-1.9550782-1.3125-.5559923-.555992-.993488-1.207678-1.3125-1.955078-.319012-.738285-.4785156-1.531245-.4785156-2.378906 0-.84766.1595036-1.640621.4785156-2.378906.319012-.7474.7565077-1.399086 1.3125-1.955078.5559924-.555993 1.2076786-.993488 1.9550782-1.3125.7382849-.319012 1.5312457-.478516 2.3789062-.478516zm0 11.375c.7291703 0 1.4082-.136717 2.0371094-.410156.638024-.273439 1.1962866-.649412 1.6748047-1.12793.478518-.478518.8544908-1.036781 1.1279297-1.674805.2734388-.628909.4101562-1.307939.4101562-2.037109s-.1367174-1.4082-.4101562-2.037109c-.2734389-.638024-.6494117-1.196287-1.1279297-1.674805-.4785181-.478518-1.0367807-.854491-1.6748047-1.12793-.6289094-.273439-1.3079391-.410156-2.0371094-.410156s-1.4082.136717-2.0371094.410156c-.638024.273439-1.1962866.649412-1.6748047 1.12793-.478518.478518-.8544908 1.036781-1.1279297 1.674805-.2734388.628909-.4101562 1.307939-.4101562 2.037109s.1367174 1.4082.4101562 2.037109c.2734389.638024.6494117 1.196287 1.1279297 1.674805.4785181.478518 1.0367807.854491 1.6748047 1.12793.6289094.273439 1.3079391.410156 2.0371094.410156z" fill="#4a4a4a" fill-rule="evenodd" transform="translate(-28 -184)"/></svg>

<?xml version="1.0" encoding="UTF-8"?>
<svg width="14px" height="13px" viewBox="0 0 14 13" version="1.1" xmlns="http://www.w3.org/2000/svg" xmlns:xlink="http://www.w3.org/1999/xlink">
    <!-- Generator: Sketch 52.1 (67048) - http://www.bohemiancoding.com/sketch -->
    <title></title>
    <desc>Created with Sketch.</desc>
    <g id="Page-1" stroke="none" stroke-width="1" fill="none" fill-rule="evenodd">
        <g id="Hamon_Home" transform="translate(-268.000000, -1745.000000)" fill="#4A4A4A">
            <g id="Ourwork_section" transform="translate(0.000000, 1456.000000)">
                <g id="Quackquack_sec" transform="translate(240.000000, 105.000000)">
                    <path d="M37.1054688,188.157492 C37.1510419,188.121034 37.198893,188.091412 37.2490234,188.068625 C37.2991539,188.045838 37.3515622,188.034445 37.40625,188.034445 C37.5247402,188.034445 37.6272782,188.077739 37.7138672,188.164328 C37.8004562,188.250917 37.84375,188.353455 37.84375,188.471945 C37.84375,188.526633 37.8323569,188.58132 37.8095703,188.636008 C37.7867837,188.690696 37.7571616,188.736268 37.7207031,188.772727 L34.3710938,192.122336 C34.3346352,192.167909 34.2890628,192.202088 34.234375,192.224875 C34.1796872,192.247662 34.1250003,192.259055 34.0703125,192.259055 C34.0065101,192.259055 33.9472659,192.247662 33.8925781,192.224875 C33.8378904,192.202088 33.7923179,192.167909 33.7558594,192.122336 L32.2792969,190.645773 C32.2428384,190.609315 32.2132163,190.566021 32.1904297,190.515891 C32.1676431,190.46576 32.15625,190.413352 32.15625,190.358664 C32.15625,190.231059 32.1995438,190.126243 32.2861328,190.044211 C32.3727218,189.962179 32.4752598,189.921164 32.59375,189.921164 C32.6575524,189.921164 32.714518,189.930279 32.7646484,189.948508 C32.8147789,189.966737 32.8580727,189.994081 32.8945312,190.030539 L34.0703125,191.192648 L37.1054688,188.157492 Z M35,184.014914 C35.8476605,184.014914 36.6406213,184.174418 37.3789062,184.49343 C38.1263058,184.812442 38.777992,185.249937 39.3339844,185.80593 C39.8899767,186.361922 40.3274724,187.013608 40.6464844,187.761008 C40.9654964,188.499293 41.125,189.292254 41.125,190.139914 C41.125,190.987575 40.9654964,191.780535 40.6464844,192.51882 C40.3274724,193.26622 39.8899767,193.917906 39.3339844,194.473898 C38.777992,195.029891 38.1263058,195.467386 37.3789062,195.786398 C36.6406213,196.10541 35.8476605,196.264914 35,196.264914 C34.1523395,196.264914 33.3593787,196.10541 32.6210938,195.786398 C31.8736942,195.467386 31.222008,195.029891 30.6660156,194.473898 C30.1100233,193.917906 29.6725276,193.26622 29.3535156,192.51882 C29.0345036,191.780535 28.875,190.987575 28.875,190.139914 C28.875,189.292254 29.0345036,188.499293 29.3535156,187.761008 C29.6725276,187.013608 30.1100233,186.361922 30.6660156,185.80593 C31.222008,185.249937 31.8736942,184.812442 32.6210938,184.49343 C33.3593787,184.174418 34.1523395,184.014914 35,184.014914 Z M35,195.389914 C35.7291703,195.389914 36.4082,195.253197 37.0371094,194.979758 C37.6751334,194.706319 38.233396,194.330346 38.7119141,193.851828 C39.1904321,193.37331 39.5664049,192.815047 39.8398438,192.177023 C40.1132826,191.548114 40.25,190.869084 40.25,190.139914 C40.25,189.410744 40.1132826,188.731714 39.8398438,188.102805 C39.5664049,187.464781 39.1904321,186.906518 38.7119141,186.428 C38.233396,185.949482 37.6751334,185.573509 37.0371094,185.30007 C36.4082,185.026631 35.7291703,184.889914 35,184.889914 C34.2708297,184.889914 33.5918,185.026631 32.9628906,185.30007 C32.3248666,185.573509 31.766604,185.949482 31.2880859,186.428 C30.8095679,186.906518 30.4335951,187.464781 30.1601562,188.102805 C29.8867174,188.731714 29.75,189.410744 29.75,190.139914 C29.75,190.869084 29.8867174,191.548114 30.1601562,192.177023 C30.4335951,192.815047 30.8095679,193.37331 31.2880859,193.851828 C31.766604,194.330346 32.3248666,194.706319 32.9628906,194.979758 C33.5918,195.253197 34.2708297,195.389914 35,195.389914 Z" id=""></path>
                </g>
            </g>
        </g>
    </g>
</svg>
